!!!COM: Bach, Johann Sebastian
!!!CDT: 1685/03/31-1750/07/28
!!!OTL: Sinfonia 14 in B-flat major
!!!SCA: BWV 800
**kern	**kern	**kern
*staff3	*staff2	*staff1
*clefF4	*clefG2	*clefG2
*k[b-e-]	*k[b-e-]	*k[b-e-]
*M4/4	*M4/4	*M4/4
*met(c)	*met(c)	*met(c)
*MM92	*MM92	*MM92
=1	=1	=1
8B-L	[4b-	1r
8d	.	.
8c	16b-LL]	.
.	16b-	.
8B-J	16a	.
.	16gJJ	.
8AL	8fL	.
8G	8gJ	.
8F	16dLL	.
.	16e-J	.
8E-J	8fJ	.
=2	=2	=2
4D	16B-LL	8r
.	16F	.
.	16B-	[8ff
.	16dJJ	.
4F	8cL	16ffLL]
.	.	16ee-
.	[8e-J	16dd
.	.	16ccJJ
4G	8e-L]	8b-L
.	16dL	8ddJ
.	16enJJ	.
4c	8.emL	16aLL
.	.	16b-J
.	.	8ccJ
.	32dLL	.
.	32eJJJ	.
=3	=3	=3
[4d	4f	16fLL
.	.	16ff
.	.	16dd
.	.	16b-JJ
16dLL]	8gL	8ee-L
16d	.	.
16B-	8b-J	[8ggJ
16GJJ	.	.
8cL	8e-L	16ggLL]
.	.	16ee-
[8e-J	8gJ	16cc
.	.	N[16aJJ
16e-LL]	8aL]	8ccL
16c	.	.
16A	[8ccJ	8ffJ
16FJJ	.	.
!!LO:LB:g=original
=4	=4	=4
[4B-	16ccLL]	4dd
.	16f	.
.	16b-	.
.	16ddJJ	.
16B-LL]	8gL	4een
16B-	.	.
16A	8b-J	.
16GJJ	.	.
8FL	8aL	8ff
8GJ	16dL	4b-
.	16e-XJJ	.
16DLL	16fLL	.
16E-J	16g	.
8FJ	16e-	[8a
.	16fJJ	.
=5	=5	=5
8BB-L	16dLL	8a]L
.	16f	.
8E-J	16B-	[8gJ
.	16cJJ	.
16BB-LL	16dLL	8g]L
16CJ	16e-	.
8DJ	16c	[8fJ
.	16dJJ	.
8GGL	16B-LL	8f]L
.	16d	.
8CJ	16G	[8e-J
.	16AJJ	.
16GGLL	16B-LL	8e-]L
16AA-XJ	16c	.
8BB-J	16A-X	[8dJ
.	16B-JJ	.
=6	=6	=6
8EE-L	4G	16dLL]
.	.	16g
[8E-J	.	16e-
.	.	16cJJ
16E-LL]	8F	8aL
16c	.	.
16An	8r	[8ccJ
16FJJ	.	.
8DL	2r	16ccLL]
.	.	16f
8GJ	.	16b-
.	.	16ddJJ
16E-LL	.	8ccL
16C	.	.
16F	.	[8ee-J
16AJJ	.	.
!!LO:LB:g=original
=7	=7	=7
16BB-LL	[4b-	8ee-]
16B-	.	.
16G	.	4dd
16FJJ	.	.
4E-T	16b-LL]	.
.	16b-	.
.	16a	8cc
.	16gJJ	.
16DLL	8f#XL	8dd
16c	.	.
16B-	8gJ	8r
16AJJ	.	.
16GLL	16dLL	4r
16B-	16e-J	.
16A-X	8fnJ	.
16GJJ	.	.
=8	=8	=8
16FLL	4Bn	8r
16A-X	.	.
16G	.	[8gg
16FJJ	.	.
8E-L	[4c	16ggLL]
.	.	16gg
8CJ	.	16ff
.	.	16ee-JJ
16FLL	8cL]	8ddL
16E-	.	.
16F	8a-XJ	8ffJ
16GJJ	.	.
16A-LL	16dLL	16bnLL
16G	16e-J	16ccJ
16F	8fJ	8ddJ
16E-JJ	.	.
=9	=9	=9
16FLL	8BnL	8gL
16A-X	.	.
16G	8dJ	8bnJ
16FJJ	.	.
16E-LL	16gLL	2cc
16D	16b-X	.
16C	16a-X	.
16BB-JJ	16gJJ	.
16AA-XLL	8fL	.
16C	.	.
16F	8a-J	.
16A-JJ	.	.
8GL	16dLL	4bn
.	16e-J	.
8GGJ	[8fJ	.
!!LO:LB:g=original
=10	=10	=10
8CL	16fLL]	[2cc
.	16f	.
[8cJ	16en	.
.	16dJJ	.
16cLL]	8eL	.
16B-	.	.
16A	[8b-J	.
16GJJ	.	.
8FL	16b-LL]	2cc_
.	16a	.
8AJ	16g	.
.	16fJJ	.
16EnLL	16gLL	.
16FJ	16a	.
8GJ	16b-	.
.	16gJJ	.
=11	=11	=11
[4AA	16enLL	4.cc]
.	16g	.
.	16e	.
.	16cJJ	.
16AALL]	8fL	.
16A	.	.
16F	8aJ	[8ff
16DJJ	.	.
16BB-LL	2g	16ffLL]
16D	.	16een
16BB-	.	16dd
16GGJJ	.	16eeJJ
8CL	.	8.eeL
8CCJ	.	.
.	.	16ffJk
=12	=12	=12
16FFLL	4a	8ffL
16G	.	.
16F	.	[8aaJ
16EnJJ	.	.
16DLL	[4b-	16aaLL]
16EJ	.	16aa
8FJ	.	16gg
.	.	16ffJJ
[2G	16b-LL]	8eenL
.	16a	.
.	16g	8ggJ
.	16fJJ	.
.	8enL	16cc#XLL
.	.	16ddJ
.	8gJ	8eeJ
!!LO:LB:g=original
=13	=13	=13
16GLL]	16c#XLL	8.aL
16B-	16dJ	.
16A	8enJ	.
16GJJ	.	16bnJk
16F#XLL	8AL	16ccnLL
16D	.	16b
16En	[8aJ	16cc
16F#JJ	.	16ddJJ
16GLL	8aL]	16bLL
16F#	.	16a
16G	[8gJ	16b
16AJJ	.	16cc#XJJ
8B-XL	16gLL]	[4dd
.	16fn	.
8AJ	16g	.
.	16aJJ	.
=14	=14	=14
16GLL	16b-LL	4dd]
16En	16g	.
16Fn	16a	.
16GJJ	16b-JJ	.
8AL	16enLL	4cc#X
.	16b-	.
8AAJ	16a	.
.	16gJJ	.
16DLL	4f	8ddL
16A	.	.
16F	.	[8ffJ
16DJJ	.	.
8dL	4r	16ffLL]
.	.	16ee-X
[8fJ	.	16dd
.	.	16ccnJJ
=15	=15	=15
16fLL]	2r	8bnL
16e-	.	.
16d	.	8ddJ
16cJJ	.	.
8BnL	.	16gLL
.	.	16aJ
8GJ	.	8bJ
16cLL	8r	4e-
16G	.	.
16E-	[8cc	.
16CJJ	.	.
16B-LL	16ccLL]	[4ee-
16d	16b-X	.
16c	16a	.
16B-JJ	16gJJ	.
!!LO:LB:g=original
=16	=16	=16
16ALL	8fL	8ee-L]
16G	.	.
16F	8aJ	16ddL
16E-JJ	.	16ccJJ
8.FL	16dLL	8b-L
.	16e-J	.
.	8fJ	8aJ
16GJk	.	.
16A-XLL	8B-L	8.ddL
16B-	.	.
16A-	[8fJ	.
16GJJ	.	16ee-Jk
16FLL	4f_	16ddLL
16E-	.	16cc
16D	.	16b-
16CJJ	.	16a-XJJ
=17	=17	=17
8BB-L	16fLL]	8.gL
.	16dJ	.
8CJ	[8e-J	.
.	.	16a-XJk
16GGLL	8e-L]	8b-L
16AA-XJ	.	.
8BB-J	8dJ	8fJ
4EE-	8e-	8gL
.	8r	[8ggJ
8r	8.ccL	16ggLL]
.	.	16ff
[8e-	.	16ee-
.	16b-Jk	16ddJJ
=18	=18	=18
8e-L]	16aLL	8ccL
.	16gJ	.
[8dJ	8fJ	8ffJ
16dLL]	8gL	16b-LL
16d	.	16ccJ
16c	8b-J	8ddJ
16B-JJ	.	.
16cLL	16e-LL	8gL
16d	16fJ	.
16c	8gJ	[8ee-J
16B-JJ	.	.
16ALL	8cL	16ee-LL]
16B-	.	16dd
16A	[8fJ	16cc
16GJJ	.	16b-JJ
!!LO:LB:g=original
=19	=19	=19
8FL	16fLL]	8aL
.	16e-	.
8BB-J	16d	8ddJ
.	16cJJ	.
16E-LL	8B-L	16gLL
16D	.	16aJ
16C	8dJ	8b-J
16BB-JJ	.	.
16CLL	16ALL	8e-L
16BB-	16B-J	.
16AA	8cJ	[8ccJ
16GGJJ	.	.
16AALL	[4F	16ccLL]
16GG	.	16b-
16FF	.	16a
16EE-JJ	.	16gJJ
=20	=20	=20
16DDLL	8FL]	4f
16E-	.	.
16D	[8b-J	.
16CJJ	.	.
16BB-LL	16b-LL]	4r
16G	16b-	.
16F	16a	.
16E-JJ	16gJJ	.
16DLL	8fL	8r
16e-	.	.
16d	8aJ	[8ff
16cJJ	.	.
8.B-L	16dLL	16ffLL]
.	16e-J	16ee-
.	8fJ	16dd
16AJk	.	16ccJJ
=21	=21	=21
8GL	16B-LL	8b-L
.	16A	.
[8FJ	16B-	8ddJ
.	16dJJ	.
16FLL]	8cL	16aLL
16E-	.	16b-J
16D	[8e-J	[8ccJ
16CJJ	.	.
8BB-L	8e-L]	16ccLL]
.	.	16f
8DJ	8dJ	16b-
.	.	16ddJJ
16AALL	16r	8ccL
16BB-J	16b-LL	.
8CJ	16a	[8ee-J
.	16gJJ	.
!!LO:LB:g=original
=22	=22	=22
8DDL	4f	16ee-LL]
.	.	16a
8D	.	16b-
.	.	16ddJJ
8BB-	16r	[4ff
.	16ddLL	.
8DJ	16b-	.
.	16a-XJJ	.
8EE-L	4g	16ffLL]
.	.	16b-
8E-	.	16cc
.	.	16ee-JJ
8C	16r	4gg
.	16ee-LL	.
[8E-J	16cc	.
.	16b-JJ	.
=23	=23	=23
8E-L]	4ff	16bb-LL
.	.	16aan
8e-	.	16gg
.	.	16ffJJ
8d	4r	16bb-LL
.	.	32aaL
.	.	32gg
8B-J	.	32ff
.	.	32ee-
.	.	32dd
.	.	32ccJJJ
8GL	32r	[4b-
.	32aLLL	.
.	32g	.
.	32fJ	.
8E-	16g	.
.	16e-JJ	.
8F	8dL	16b-KL]
.	.	8b-
8FFJ	8cJ	.
.	.	16aJk
=24	=24	=24
1BB-;	1d;	1b-;
==	==	==
*-	*-	*-
!!!RDF**kern: N = linked
!!!system-decoration: [(s1,s2,s3)]
!!!URL-pdf: https://vmirror.imslp.org/files/imglnks/usimg/5/55/IMSLP396136-PMLP03268-Bach,_Johann_Sebastian-Werke_Breitkopf_Band_3_02_BWV_787-801.pdf#page=22 Bach-Gesellschaft Ausgabe, Band 3 (pp.19-42) Leipzig: Breitkopf und Härtel, 1853. Plate B.W. III.
!!!URL-youtube: https://www.youtube.com/watch?v=Lao8x1bHWEg&t=1650s Malinowski
!!!SMS: Bach-Gesellschaft Ausgabe, Band 3 (pp.19-42) Leipzig: Breitkopf und Härtel, 1853. Plate B.W. III.
!!!ONB: Open-score format
!!!ENC: Craig Stuart Sapp
!!!END: 2024/03/29
!!!EED: Craig Stuart Sapp
!!!EEV: 2024/03/29
!!!title: @{OTL} (@{SCA})
!!!voices: 3
!!!AGN: polyphony
!!!AST: baroque
!!!AMT: simple quadruple
!!!AIN: cemb; clavi
